X:1
T:Partition sans titre
C:Compositeur / Arrangeur
L:1/8
M:4/4
I:linebreak $
K:D
V:1 treble nm="Violon" snm="Vln."
V:1
"D" dBAG F2 D2 | ADAB AF D2 | dBAG F2 F2 |"A" E3 F E2 D2 |"G" G2 F2 G2 e2 |"A" c3 d cBAc | %6
 B2 A2"D" F2 D2 |1 dcde d2 (3ABc :|2 dcde d2 A2 |:"G" B2 c2 d2 e2 |"D" f3 g f2 df | %11
"A" e2 c2 A2 e2 |"G" dABc B2 A2 |"G" BABc dcde |"D" fefg fedf |"A" efed ccac |1"D" d6 A2 :|2 %17
"D" d6 (3ABc |] %18
